covers/svg/cover-java.svg

<svg width="1280" height="640" fill="none" xmlns="http://www.w3.org/2000/svg"><path fill="#EDEFF3" d="M0 0h1280v640H0z"/><path d="M1139.65 596h-9.85v-1.699l6.55-9.153h-6.15v-2.121h9.26v1.875l-6.42 8.977h6.61V596Zm7.97-13.219c1.16 0 2.15.239 2.98.715.83.477 1.46 1.152 1.91 2.027.44.875.67 1.922.67 3.141v1.477h-8.66c.03 1.257.36 2.226 1 2.906.65.68 1.56 1.019 2.72 1.019.83 0 1.57-.078 2.23-.234.66-.164 1.35-.402 2.05-.715v2.238c-.65.305-1.31.528-1.98.668-.67.141-1.48.211-2.42.211-1.27 0-2.39-.246-3.36-.738-.96-.5-1.71-1.242-2.26-2.226-.54-.985-.81-2.208-.81-3.668 0-1.454.25-2.688.74-3.704.49-1.015 1.18-1.789 2.07-2.32.89-.531 1.93-.797 3.12-.797Zm0 2.074c-.87 0-1.57.282-2.11.844-.53.563-.84 1.387-.94 2.473h5.91c-.01-.649-.12-1.223-.33-1.723-.2-.5-.51-.89-.94-1.172-.41-.281-.94-.422-1.59-.422Zm15.24-2.074c.21 0 .45.012.71.035.26.024.48.055.67.094l-.26 2.578a3.41 3.41 0 0 0-.61-.105 6.093 6.093 0 0 0-.63-.035c-.49 0-.96.082-1.41.246-.44.156-.84.398-1.18.726-.35.321-.61.723-.81 1.207-.2.485-.29 1.047-.29 1.688V596h-2.77v-12.973h2.16l.37 2.285h.13c.26-.46.58-.882.96-1.265.39-.383.82-.688 1.31-.914a3.83 3.83 0 0 1 1.65-.352Zm15.26 6.703c0 1.078-.14 2.036-.42 2.871-.28.836-.69 1.543-1.23 2.122a5.398 5.398 0 0 1-1.94 1.312c-.76.297-1.62.445-2.57.445-.89 0-1.71-.148-2.45-.445a5.537 5.537 0 0 1-1.93-1.312c-.54-.579-.96-1.286-1.26-2.122-.29-.835-.44-1.793-.44-2.871 0-1.429.24-2.64.74-3.632.5-1 1.21-1.762 2.13-2.286.92-.523 2.02-.785 3.29-.785 1.2 0 2.25.262 3.17.785.91.524 1.63 1.286 2.14 2.286.52 1 .77 2.21.77 3.632Zm-9.41 0c0 .946.12 1.754.34 2.426.24.672.6 1.188 1.08 1.547.49.352 1.11.527 1.88.527.76 0 1.39-.175 1.87-.527.49-.359.84-.875 1.07-1.547.23-.672.34-1.48.34-2.426 0-.945-.11-1.746-.34-2.402-.23-.664-.58-1.168-1.07-1.512-.48-.351-1.11-.527-1.88-.527-1.14 0-1.98.383-2.5 1.148-.52.766-.79 1.864-.79 3.293Zm19.24-6.703c1.53 0 2.77.563 3.7 1.688.94 1.125 1.4 2.797 1.4 5.015 0 1.469-.21 2.707-.65 3.715-.43 1-1.04 1.758-1.82 2.274-.77.507-1.67.761-2.7.761-.66 0-1.23-.086-1.72-.257a4.414 4.414 0 0 1-1.24-.668 5.114 5.114 0 0 1-.87-.914h-.16c.04.312.07.66.11 1.043.04.374.05.718.05 1.031v5.285h-2.76v-18.727h2.25l.39 1.793h.12c.25-.367.54-.707.88-1.019.36-.313.78-.559 1.27-.739.5-.187 1.08-.281 1.75-.281Zm-.74 2.25c-.76 0-1.37.153-1.83.457-.45.297-.79.746-1 1.348-.2.602-.31 1.355-.33 2.262v.386c0 .961.1 1.778.3 2.45.2.664.53 1.171.99 1.523.47.344 1.11.516 1.9.516.67 0 1.23-.184 1.67-.551.44-.367.77-.891.99-1.57.22-.68.33-1.481.33-2.403 0-1.398-.25-2.484-.75-3.258-.49-.773-1.25-1.16-2.27-1.16Zm17.75 7.266c0 .851-.21 1.57-.62 2.156-.41.586-1.02 1.031-1.82 1.336-.79.297-1.75.445-2.9.445-.91 0-1.69-.066-2.35-.199a8.017 8.017 0 0 1-1.84-.586v-2.379c.62.289 1.31.539 2.08.75.77.211 1.5.317 2.19.317.91 0 1.56-.141 1.96-.422.39-.289.59-.672.59-1.149 0-.281-.08-.531-.24-.75-.16-.226-.46-.457-.89-.691-.43-.242-1.07-.531-1.9-.867-.82-.328-1.51-.656-2.08-.985-.56-.328-.98-.722-1.27-1.183-.29-.469-.44-1.067-.44-1.793 0-1.149.46-2.02 1.36-2.613.92-.602 2.12-.903 3.62-.903.8 0 1.55.082 2.25.246.72.157 1.41.387 2.09.692l-.87 2.074c-.58-.258-1.17-.469-1.77-.633a6.28 6.28 0 0 0-1.79-.258c-.71 0-1.25.11-1.63.328-.37.219-.55.532-.55.938 0 .305.09.562.27.773.18.211.49.422.93.633.44.211 1.06.473 1.85.785.77.297 1.44.61 2 .938.57.32 1.01.715 1.31 1.183.31.469.46 1.075.46 1.817Zm2.58 2.25c0-.641.16-1.09.49-1.348.34-.265.74-.398 1.22-.398s.88.133 1.22.398c.34.258.51.707.51 1.348 0 .625-.17 1.078-.51 1.359-.34.274-.74.41-1.22.41s-.88-.136-1.22-.41c-.33-.281-.49-.734-.49-1.359Zm9.74-11.52V596h-2.76v-12.973h2.76Zm-1.36-4.968c.42 0 .78.113 1.09.339.31.227.47.618.47 1.172 0 .547-.16.938-.47 1.172-.31.227-.67.34-1.09.34-.44 0-.81-.113-1.12-.34-.29-.234-.44-.625-.44-1.172 0-.554.15-.945.44-1.172.31-.226.68-.339 1.12-.339Zm16.79 11.425c0 1.078-.14 2.036-.42 2.871-.28.836-.69 1.543-1.23 2.122a5.437 5.437 0 0 1-1.95 1.312c-.75.297-1.61.445-2.56.445-.89 0-1.71-.148-2.45-.445a5.67 5.67 0 0 1-1.94-1.312c-.54-.579-.95-1.286-1.25-2.122-.3-.835-.45-1.793-.45-2.871 0-1.429.25-2.64.74-3.632.5-1 1.21-1.762 2.14-2.286.92-.523 2.02-.785 3.29-.785 1.19 0 2.25.262 3.16.785.92.524 1.63 1.286 2.15 2.286.51 1 .77 2.21.77 3.632Zm-9.41 0c0 .946.11 1.754.34 2.426.24.672.59 1.188 1.08 1.547.48.352 1.11.527 1.87.527.77 0 1.39-.175 1.88-.527.48-.359.84-.875 1.07-1.547.22-.672.34-1.48.34-2.426 0-.945-.12-1.746-.34-2.402-.23-.664-.59-1.168-1.07-1.512-.49-.351-1.11-.527-1.89-.527-1.14 0-1.97.383-2.49 1.148-.53.766-.79 1.864-.79 3.293Z" fill="#1A1A1A"/><path d="m337.596 179.457-96.358 36.828A22.427 22.427 0 0 0 227 237.194v92.714l44.283-25.449v-52.131l74.217-28.475V178c-2.701.006-5.379.5-7.904 1.457ZM272.068 387.084l73.432-42.321v-51.122l-113.455 65.416a10.205 10.205 0 0 0-5.045 8.745v34.249a22.421 22.421 0 0 0 14.238 20.684l96.358 36.828a22.4 22.4 0 0 0 7.904 1.457v-45.852l-73.432-28.084Z" fill="#323232"/><path d="M459.291 279.066a9.36 9.36 0 0 0 4.708-8.24v-33.632a22.427 22.427 0 0 0-14.238-20.909l-96.414-36.828A22.431 22.431 0 0 0 345.5 178v45.853l72.871 28.027-72.871 41.985v51.122l113.791-65.921ZM353.347 459.563l96.414-36.828a22.416 22.416 0 0 0 14.238-20.684v-93.667l-44.283 25.561v52.859L345.5 415.168v45.853a22.432 22.432 0 0 0 7.847-1.458Z" fill="#1A1A1A"/><path d="m670 295.553-6.043-6.043L640 313.467l-23.957-23.957-6.043 6.043 23.957 23.957L610 343.467l6.043 6.043L640 325.553l23.957 23.957 6.043-6.043-23.957-23.957L670 295.553Z" fill="#939393"/><path d="M932.918 230.44c-14.766 9.198-31.502 19.623-40.468 36.871-15.575 30.089 31.87 62.912 33.898 64.295a2.835 2.835 0 0 0 1.598.481 2.83 2.83 0 0 0 1.681-.541c.942-.698 1.209-1.883.644-2.848-.172-.293-17.202-29.59-16.57-50.608.225-7.32 11.792-15.624 24.038-24.416 11.216-8.053 23.93-17.18 31.369-27.857 16.33-23.502-1.82-46.611-2.006-46.841-.72-.896-2.051-1.222-3.189-.78-1.137.444-1.766 1.533-1.507 2.609.037.152 3.567 15.434-6.255 31.179-4.047 6.505-12.937 12.044-23.233 18.456Z" fill="#1A1A1A"/><path d="M995.129 240.804c1.041-.695 1.347-1.962.717-2.974-.631-1.011-2.005-1.458-3.224-1.047-2.509.844-61.427 20.957-61.427 45.261 0 16.752 8.08 25.602 13.98 32.065 2.314 2.534 4.313 4.723 4.971 6.592 1.853 5.386-2.538 15.12-4.384 18.416-.533.949-.272 2.096.634 2.789.489.374 1.1.563 1.712.563a2.85 2.85 0 0 0 1.495-.416c1.013-.624 24.758-15.493 20.499-33.406-1.586-6.809-5.364-11.784-8.698-16.174-5.165-6.801-8.895-11.715-3.236-20.789 6.632-10.582 36.658-30.678 36.961-30.88Z" fill="#1A1A1A"/><path d="M841.764 342.856c-1.011 2.677-.534 5.335 1.377 7.686 6.387 7.852 29.011 12.177 63.706 12.177h.004c4.702 0 9.665-.081 14.749-.243 55.471-1.759 76.046-17.064 76.894-17.714.926-.709 1.173-1.89.598-2.846-.576-.955-1.816-1.435-3.001-1.146-19.536 4.724-56.016 6.401-81.32 6.401-28.313 0-42.733-1.806-46.262-3.139 1.811-2.203 12.983-6.137 26.827-8.549 1.324-.23 2.233-1.312 2.102-2.5-.131-1.189-1.258-2.096-2.607-2.096-8.116.001-48.814.578-53.067 11.969ZM1027.38 327.094c-11.44 0-22.29 5.078-22.75 5.294-1.05.502-1.59 1.577-1.3 2.608.29 1.031 1.34 1.756 2.54 1.757.24.001 24.4.175 26.59 12.402 1.94 10.548-22.86 27.638-32.579 33.334-1.05.615-1.458 1.805-.97 2.832.413.875 1.379 1.423 2.409 1.423.19 0 .37-.017.55-.052 2.31-.436 56.43-10.998 50.71-38.906-3.49-17.103-15.63-20.692-25.2-20.692ZM990.268 379.074c.188-.895-.232-1.804-1.072-2.326l-12.977-8.05a2.911 2.911 0 0 0-2.175-.341c-.135.032-13.705 3.19-33.407 5.128-7.82.776-16.578 1.187-25.33 1.187-19.697 0-32.576-2.05-34.451-3.553-.249-.423-.17-.615-.126-.722.34-.839 2.167-1.837 3.344-2.231 1.301-.426 2.002-1.677 1.597-2.852-.403-1.174-1.771-1.867-3.12-1.579-13.017 2.782-19.383 6.673-18.919 11.563.822 8.67 23.499 13.12 42.67 14.298 2.756.167 5.738.252 8.859.252h.006c31.878 0 72.744-8.858 73.153-8.948.997-.218 1.758-.932 1.948-1.826ZM892.434 397.684c.983-.567 1.419-1.642 1.07-2.634-.348-.991-1.395-1.641-2.57-1.628-1.745.041-17.07.653-18.143 9.295-.325 2.583.51 4.941 2.483 7.012 5.503 5.775 20.356 9.207 45.401 10.495 2.964.156 5.973.235 8.947.235 31.842 0 53.286-8.829 54.184-9.205.871-.365 1.445-1.122 1.496-1.974.052-.851-.428-1.659-1.25-2.103l-16.399-8.867a2.93 2.93 0 0 0-1.9-.291c-.104.019-10.516 1.932-26.23 3.822-2.974.357-6.698.539-11.067.539-15.697 0-33.157-2.271-36.506-3.758-.048-.279.014-.632.484-.938Z" fill="#1A1A1A"/><path d="M914.783 447.118c72.934-.055 112.077-11.542 119.617-18.77 2.67-2.559 2.96-4.98 2.73-6.561-.56-3.892-4.56-6.274-5.01-6.533-1.1-.623-2.57-.46-3.42.412-.85.874-.87 2.148-.02 3.019.46.524.73 1.401-.62 2.594-3.01 2.493-33.417 10.062-84.043 12.336-6.935.32-14.208.481-21.618.482-45.328 0-78.501-5.498-82.856-8.703 1.68-2.135 13.413-5.548 25.891-7.477 1.407-.217 2.357-1.391 2.139-2.64-.218-1.249-1.518-2.11-2.939-1.945-.352.041-1.545.106-2.93.181-20.589 1.113-44.383 3.595-45.624 12.99-.377 2.863.583 5.462 2.856 7.724 5.56 5.533 21.544 12.89 95.844 12.89l.003.001Z" fill="#1A1A1A"/><path d="M1048.73 430.384c-1.03-.422-2.25-.208-3.02.527-.11.102-11.07 10.257-44.04 16.22-12.624 2.24-36.317 3.376-70.423 3.376-34.169 0-66.682-1.191-67.007-1.203-1.358-.058-2.52.816-2.704 2-.186 1.184.675 2.298 1.987 2.575.339.071 34.413 7.141 81.002 7.141 22.346 0 44.09-1.608 64.635-4.78 38.29-5.946 40.98-22.765 41.07-23.477.13-.997-.47-1.956-1.5-2.379Z" fill="#1A1A1A"/></svg>

<svg width="1280" height="640" viewBox="0 0 1280 640" fill="none" xmlns="http://www.w3.org/2000/svg">
<g clip-path="url(#clip0_1_2)">
<path d="M0 0H1280V640H0V0Z" fill="#EDEFF3"/>
<path d="M1139.65 596H1129.8V594.301L1136.35 585.148H1130.2V583.027H1139.46V584.902L1133.04 593.879H1139.65V596ZM1147.62 582.781C1148.78 582.781 1149.77 583.02 1150.6 583.496C1151.43 583.973 1152.06 584.648 1152.51 585.523C1152.95 586.398 1153.18 587.445 1153.18 588.664V590.141H1144.52C1144.55 591.398 1144.88 592.367 1145.52 593.047C1146.17 593.727 1147.08 594.066 1148.24 594.066C1149.07 594.066 1149.81 593.988 1150.47 593.832C1151.13 593.668 1151.82 593.43 1152.52 593.117V595.355C1151.87 595.66 1151.21 595.883 1150.54 596.023C1149.87 596.164 1149.06 596.234 1148.12 596.234C1146.85 596.234 1145.73 595.988 1144.76 595.496C1143.8 594.996 1143.05 594.254 1142.5 593.27C1141.96 592.285 1141.69 591.062 1141.69 589.602C1141.69 588.148 1141.94 586.914 1142.43 585.898C1142.92 584.883 1143.61 584.109 1144.5 583.578C1145.39 583.047 1146.43 582.781 1147.62 582.781ZM1147.62 584.855C1146.75 584.855 1146.05 585.137 1145.51 585.699C1144.98 586.262 1144.67 587.086 1144.57 588.172H1150.48C1150.47 587.523 1150.36 586.949 1150.15 586.449C1149.95 585.949 1149.64 585.559 1149.21 585.277C1148.8 584.996 1148.27 584.855 1147.62 584.855ZM1162.86 582.781C1163.07 582.781 1163.31 582.793 1163.57 582.816C1163.83 582.84 1164.05 582.871 1164.24 582.91L1163.98 585.488C1163.78 585.435 1163.58 585.399 1163.37 585.383C1163.16 585.36 1162.95 585.349 1162.74 585.348C1162.25 585.348 1161.78 585.43 1161.33 585.594C1160.89 585.75 1160.49 585.992 1160.15 586.32C1159.8 586.641 1159.54 587.043 1159.34 587.527C1159.14 588.012 1159.05 588.574 1159.05 589.215V596H1156.28V583.027H1158.44L1158.81 585.312H1158.94C1159.2 584.852 1159.52 584.43 1159.9 584.047C1160.29 583.664 1160.72 583.359 1161.21 583.133C1161.73 582.894 1162.29 582.774 1162.86 582.781ZM1178.12 589.484C1178.12 590.562 1177.98 591.52 1177.7 592.355C1177.42 593.191 1177.01 593.898 1176.47 594.477C1175.93 595.051 1175.26 595.499 1174.53 595.789C1173.77 596.086 1172.91 596.234 1171.96 596.234C1171.07 596.234 1170.25 596.086 1169.51 595.789C1168.78 595.494 1168.12 595.046 1167.58 594.477C1167.04 593.898 1166.62 593.191 1166.32 592.355C1166.03 591.52 1165.88 590.562 1165.88 589.484C1165.88 588.055 1166.12 586.844 1166.62 585.852C1167.12 584.852 1167.83 584.09 1168.75 583.566C1169.67 583.043 1170.77 582.781 1172.04 582.781C1173.24 582.781 1174.29 583.043 1175.21 583.566C1176.12 584.09 1176.84 584.852 1177.35 585.852C1177.87 586.852 1178.12 588.062 1178.12 589.484ZM1168.71 589.484C1168.71 590.43 1168.83 591.238 1169.05 591.91C1169.29 592.582 1169.65 593.098 1170.13 593.457C1170.62 593.809 1171.24 593.984 1172.01 593.984C1172.77 593.984 1173.4 593.809 1173.88 593.457C1174.37 593.098 1174.72 592.582 1174.95 591.91C1175.18 591.238 1175.29 590.43 1175.29 589.484C1175.29 588.539 1175.18 587.738 1174.95 587.082C1174.72 586.418 1174.37 585.914 1173.88 585.57C1173.4 585.219 1172.77 585.043 1172 585.043C1170.86 585.043 1170.02 585.426 1169.5 586.191C1168.98 586.957 1168.71 588.055 1168.71 589.484ZM1187.95 582.781C1189.48 582.781 1190.72 583.344 1191.65 584.469C1192.59 585.594 1193.05 587.266 1193.05 589.484C1193.05 590.953 1192.84 592.191 1192.4 593.199C1191.97 594.199 1191.36 594.957 1190.58 595.473C1189.81 595.98 1188.91 596.234 1187.88 596.234C1187.22 596.234 1186.65 596.148 1186.16 595.977C1185.71 595.822 1185.29 595.597 1184.92 595.309C1184.59 595.041 1184.3 594.734 1184.05 594.395H1183.89C1183.93 594.707 1183.96 595.055 1184 595.438C1184.04 595.812 1184.05 596.156 1184.05 596.469V601.754H1181.29V583.027H1183.54L1183.93 584.82H1184.05C1184.3 584.453 1184.59 584.113 1184.93 583.801C1185.29 583.488 1185.71 583.242 1186.2 583.062C1186.7 582.875 1187.28 582.781 1187.95 582.781ZM1187.21 585.031C1186.45 585.031 1185.84 585.184 1185.38 585.488C1184.93 585.785 1184.59 586.234 1184.38 586.836C1184.18 587.438 1184.07 588.191 1184.05 589.098V589.484C1184.05 590.445 1184.15 591.262 1184.35 591.934C1184.55 592.598 1184.88 593.105 1185.34 593.457C1185.81 593.801 1186.45 593.973 1187.24 593.973C1187.91 593.973 1188.47 593.789 1188.91 593.422C1189.35 593.055 1189.68 592.531 1189.9 591.852C1190.12 591.172 1190.23 590.371 1190.23 589.449C1190.23 588.051 1189.98 586.965 1189.48 586.191C1188.99 585.418 1188.23 585.031 1187.21 585.031ZM1204.96 592.297C1204.96 593.148 1204.75 593.867 1204.34 594.453C1203.93 595.039 1203.32 595.484 1202.52 595.789C1201.73 596.086 1200.77 596.234 1199.62 596.234C1198.71 596.234 1197.93 596.168 1197.27 596.035C1196.64 595.914 1196.02 595.718 1195.43 595.449V593.07C1196.05 593.359 1196.74 593.609 1197.51 593.82C1198.28 594.031 1199.01 594.137 1199.7 594.137C1200.61 594.137 1201.26 593.996 1201.66 593.715C1202.05 593.426 1202.25 593.043 1202.25 592.566C1202.25 592.285 1202.17 592.035 1202.01 591.816C1201.85 591.59 1201.55 591.359 1201.12 591.125C1200.69 590.883 1200.05 590.594 1199.22 590.258C1198.4 589.93 1197.71 589.602 1197.14 589.273C1196.58 588.945 1196.16 588.551 1195.87 588.09C1195.58 587.621 1195.43 587.023 1195.43 586.297C1195.43 585.148 1195.89 584.277 1196.79 583.684C1197.71 583.082 1198.91 582.781 1200.41 582.781C1201.21 582.781 1201.96 582.863 1202.66 583.027C1203.38 583.184 1204.07 583.414 1204.75 583.719L1203.88 585.793C1203.3 585.535 1202.71 585.324 1202.11 585.16C1201.53 584.988 1200.93 584.901 1200.32 584.902C1199.61 584.902 1199.07 585.012 1198.69 585.23C1198.32 585.449 1198.14 585.762 1198.14 586.168C1198.14 586.473 1198.23 586.73 1198.41 586.941C1198.59 587.152 1198.9 587.363 1199.34 587.574C1199.78 587.785 1200.4 588.047 1201.19 588.359C1201.96 588.656 1202.63 588.969 1203.19 589.297C1203.76 589.617 1204.2 590.012 1204.5 590.48C1204.81 590.949 1204.96 591.555 1204.96 592.297ZM1207.54 594.547C1207.54 593.906 1207.7 593.457 1208.03 593.199C1208.37 592.934 1208.77 592.801 1209.25 592.801C1209.73 592.801 1210.13 592.934 1210.47 593.199C1210.81 593.457 1210.98 593.906 1210.98 594.547C1210.98 595.172 1210.81 595.625 1210.47 595.906C1210.13 596.18 1209.73 596.316 1209.25 596.316C1208.77 596.316 1208.37 596.18 1208.03 595.906C1207.7 595.625 1207.54 595.172 1207.54 594.547ZM1217.28 583.027V596H1214.52V583.027H1217.28ZM1215.92 578.059C1216.34 578.059 1216.7 578.172 1217.01 578.398C1217.32 578.625 1217.48 579.016 1217.48 579.57C1217.48 580.117 1217.32 580.508 1217.01 580.742C1216.7 580.969 1216.34 581.082 1215.92 581.082C1215.48 581.082 1215.11 580.969 1214.8 580.742C1214.51 580.508 1214.36 580.117 1214.36 579.57C1214.36 579.016 1214.51 578.625 1214.8 578.398C1215.11 578.172 1215.48 578.059 1215.92 578.059ZM1232.71 589.484C1232.71 590.562 1232.57 591.52 1232.29 592.355C1232.01 593.191 1231.6 593.898 1231.06 594.477C1230.51 595.051 1229.85 595.499 1229.11 595.789C1228.36 596.086 1227.5 596.234 1226.55 596.234C1225.66 596.234 1224.84 596.086 1224.1 595.789C1223.37 595.491 1222.71 595.045 1222.16 594.477C1221.62 593.898 1221.21 593.191 1220.91 592.355C1220.61 591.52 1220.46 590.562 1220.46 589.484C1220.46 588.055 1220.71 586.844 1221.2 585.852C1221.7 584.852 1222.41 584.09 1223.34 583.566C1224.26 583.043 1225.36 582.781 1226.63 582.781C1227.82 582.781 1228.88 583.043 1229.79 583.566C1230.71 584.09 1231.42 584.852 1231.94 585.852C1232.45 586.852 1232.71 588.062 1232.71 589.484ZM1223.3 589.484C1223.3 590.43 1223.41 591.238 1223.64 591.91C1223.88 592.582 1224.23 593.098 1224.72 593.457C1225.2 593.809 1225.83 593.984 1226.59 593.984C1227.36 593.984 1227.98 593.809 1228.47 593.457C1228.95 593.098 1229.31 592.582 1229.54 591.91C1229.76 591.238 1229.88 590.43 1229.88 589.484C1229.88 588.539 1229.76 587.738 1229.54 587.082C1229.31 586.418 1228.95 585.914 1228.47 585.57C1227.98 585.219 1227.36 585.043 1226.58 585.043C1225.44 585.043 1224.61 585.426 1224.09 586.191C1223.56 586.957 1223.3 588.055 1223.3 589.484Z" fill="#1A1A1A"/>
<path d="M368.596 179.457L272.238 216.285C268.037 217.933 264.43 220.81 261.89 224.54C259.35 228.271 257.994 232.681 258 237.194V329.908L302.283 304.459V252.328L376.5 223.853V178C373.799 178.006 371.121 178.5 368.596 179.457ZM303.068 387.084L376.5 344.763V293.641L263.045 359.057C261.518 359.952 260.25 361.229 259.365 362.762C258.481 364.295 258.01 366.032 258 367.802V402.051C258.038 406.526 259.414 410.887 261.952 414.573C264.489 418.259 268.072 421.102 272.238 422.735L368.596 459.563C371.121 460.521 373.799 461.015 376.5 461.02V415.168L303.068 387.084Z" fill="#323232"/>
<path d="M490.291 279.066C491.739 278.237 492.939 277.036 493.767 275.587C494.594 274.138 495.02 272.494 494.999 270.826V237.194C495.005 232.681 493.65 228.271 491.109 224.54C488.569 220.81 484.963 217.933 480.761 216.285L384.347 179.457C381.839 178.506 379.182 178.013 376.5 178V223.853L449.371 251.88L376.5 293.865V344.987L490.291 279.066ZM384.347 459.563L480.761 422.735C484.928 421.102 488.511 418.26 491.048 414.574C493.586 410.888 494.962 406.526 494.999 402.051V308.384L450.716 333.945V386.804L376.5 415.168V461.02C379.182 461.008 381.84 460.514 384.347 459.563Z" fill="#1A1A1A"/>
<path d="M670 296.043L663.957 290L640 313.957L616.043 290L610 296.043L633.957 320L610 343.957L616.043 350L640 326.043L663.957 350L670 343.957L646.043 320L670 296.043Z" fill="#939393"/>
<path d="M901.182 312.345C901.182 312.345 882.563 276.467 883.251 250.251C883.752 231.516 925.994 212.997 942.578 186.107C959.134 159.202 940.514 133 940.514 133C940.514 133 944.657 152.322 933.619 172.303C922.583 192.313 881.845 204.053 866.007 238.54C850.168 273.028 901.182 312.345 901.182 312.345Z" fill="#010002"/>
<path d="M970.873 203.35C970.873 203.35 907.417 227.503 907.417 255.081C907.417 282.688 924.647 291.647 927.427 300.605C930.18 309.593 922.597 324.758 922.597 324.758C922.597 324.758 947.424 307.514 943.267 287.505C939.124 267.495 919.816 261.273 930.868 241.293C938.25 227.89 970.873 203.35 970.873 203.35Z" fill="#010002"/>
<path d="M894.302 348.796C952.942 346.703 974.328 328.198 974.328 328.198C936.401 338.533 835.677 337.859 834.975 330.277C834.301 322.694 866.008 316.473 866.008 316.473C866.008 316.473 816.355 316.473 812.213 328.886C808.07 341.299 835.705 350.846 894.302 348.796Z" fill="#010002"/>
<path d="M979.144 377.865C979.144 377.865 1036.54 365.624 1030.86 334.448C1023.98 296.492 983.959 317.878 983.959 317.878C983.959 317.878 1012.27 317.878 1015.01 335.107C1017.77 352.351 979.144 377.865 979.144 377.865Z" fill="#010002"/>
<path d="M950.863 361.324C950.863 361.324 936.4 365.122 914.971 367.53C886.246 370.755 851.515 368.204 848.749 363.373C846.026 358.543 853.579 355.79 853.579 355.79C819.078 364.075 837.956 378.538 878.391 381.319C913.05 383.684 964.638 370.97 964.638 370.97L950.863 361.324Z" fill="#010002"/>
<path d="M861.893 391.453C861.893 391.453 846.241 391.898 845.323 400.183C844.42 408.411 854.956 415.807 893.599 418.101C932.229 420.394 959.377 407.536 959.377 407.536L941.904 396.93C941.904 396.93 930.852 399.251 913.838 401.545C896.809 403.853 861.892 399.696 860.516 396.5C859.112 393.273 861.893 391.453 861.893 391.453Z" fill="#010002"/>
<path d="M1012.24 428.707C1018.22 422.256 1010.39 417.197 1010.39 417.197C1010.39 417.197 1013.14 420.422 1009.5 424.092C1005.82 427.761 972.235 436.949 918.425 439.716C864.631 442.482 806.22 434.655 804.371 427.761C802.58 420.866 834.286 415.362 834.286 415.362C830.616 415.821 786.468 416.738 785.063 428.707C783.687 440.647 804.371 450.308 887.177 450.308C969.942 450.294 1006.29 435.114 1012.24 428.707Z" fill="#010002"/>
<path d="M980.061 455.826C943.725 463.165 833.383 458.536 833.383 458.536C833.383 458.536 905.096 475.564 986.956 461.317C1026.09 454.493 1028.37 435.558 1028.37 435.558C1028.37 435.558 1016.4 448.444 980.061 455.826Z" fill="#010002"/>
</g>
<defs>
<clipPath id="clip0_1_2">
<rect width="1280" height="640" fill="white"/>
</clipPath>
</defs>
</svg>
